X: 81
T:The Leaving of Liverpool
% Nottingham Music Database
S:via PR
M:2/4
L:1/4
K:D
D/2E/2 |"D"F -F/2A/2|"D7"G/2F/2 E/2D/2|"G"d -d/2B/2|"D"A "A7"D/2E/2|\
"D"F A/2A/2|"Bm"B A/2F/2|"Em"E2-|"A7"E D/2E/2|
"D"F -F/2A/2|"D7"G/2F/2 E/2D/2|"G"d -d/2B/2|"D"A "A7"D/2E/2|\
"D"F/2A/2 "Bm"A/2F/2|"Em"E/2G/2 "A7"F/2E/2|"D"D2-|D c/2d/2||
"A7"e -e/2c/2|A c/2e/2|"G"d -d/2B/2|"D"A "A7"D/2E/2|"D"F/2A/2 A/2A/2|\
"B7"^G/2A/2 B/2A/2|"E7"E2-|"A7"E/2A/2 A/2G/2|
"D"F -F/2A/2|"D7"G/2F/2 E/2D/2|"G"d -d/2B/2|"D"A "A7"D/2E/2|\
"D"F/2A/2 "Bm"A/2F/2|"Em"E/2G/2 "A7"F/2E/2|"D"D2-|D ||<end>
<start>
